Hatter-kde/actions/16/mode2.svg

<?xml version="1.0" encoding="UTF-8"?>
<svg viewBox="0 0 16 16" xmlns="http://www.w3.org/2000/svg">
 <defs id="defs3051">
  <style id="current-color-scheme" type="text/css">.ColorScheme-Text {
        color:#363636;
      }
      .ColorScheme-Highlight {
        color:#3daee9;
      }</style>
 </defs>
 <path class="ColorScheme-Text" d="m2 2v1h5v-1h-5zm7 0v1h5v-1h-5zm-7 3v1h5v-1h-5zm7 0v1h5v-1h-5zm-4 6c0 1.108 0.892 2 2 2h5v1l2-1.5-2-1.5v1h-5c-0.554 0-1-0.446-1-1h-1z" fill="currentColor"/>
 <path class="ColorScheme-Highlight" d="m7 7-2 1.5 2 1.5v-1h5c0.554 0 1 0.446 1 1h1c0-1.108-0.892-2-2-2h-5z" fill="currentColor"/>
</svg>

<svg xmlns="http://www.w3.org/2000/svg" viewBox="0 0 16 16">
  <defs id="defs3051">
    <style type="text/css" id="current-color-scheme">
      .ColorScheme-Text {
        color:#363636;
      }
      .ColorScheme-Highlight {
        color:#3daee9;
      }
      </style>
  </defs>
  <path 
        style="fill:currentColor;fill-opacity:1;stroke:none"
        d="M 2 2 L 2 3 L 7 3 L 7 2 L 2 2 z M 9 2 L 9 3 L 14 3 L 14 2 L 9 2 z M 2 5 L 2 6 L 7 6 L 7 5 L 2 5 z M 9 5 L 9 6 L 14 6 L 14 5 L 9 5 z M 5 11 C 5 12.108 5.892 13 7 13 L 12 13 L 12 14 L 14 12.5 L 12 11 L 12 12 L 7 12 C 6.446 12 6 11.554 6 11 L 5 11 z "
        class="ColorScheme-Text"
        />
  <path
        style="fill:currentColor;fill-opacity:1;stroke:none"
        d="M 7,7 5,8.5 7,10 7,9 12,9 c 0.554,0 1,0.446 1,1 l 1,0 C 14,8.892 13.108,8 12,8 L 7,8 Z"
        class="ColorScheme-Highlight"
      />
</svg>
